X:1
T:asdf
T:Elgar Viola Concerto
C:Edward Elgar
L:1/8
Q:1/4=80
M:4/4
K:G
V:1 alto nm="Viola" snm="Vla."
V:1
!ff!!ff!!ff! [G,EB]4 [E,B,Ge]4 | [C,G,Ed]cBc!<(! [^D,B,FA-]2 A2-!<)! | %2
w: Noblimente *||
 AGF{/A}G!>(!!>(!!>(! C4-!>)!!>)!!>)! | CB,A,{/D}C!p!!p!!p!!<(!!<(!!<(! !-(!B,4!<)!!<)!!<)! | %4
w: ||
!ff!!ff!!ff! !-)!E,4 z4 | z4 z3!p!!p!!p! B,/^C/ | %6
w: ||
 ^D/E/F-!<(!!<(!!<(! FD/E/ F/G/A- AF/G/!<)!!<)!!<)! | AB!>(!cd ^de=f^f!>)! |[M:9/8]!pp!"^1" f z8 | %9
w: |||
 z9 | z9 | z9 | z9 | z9 |!p!"^2" (f2 g) f2 a b2 a | (g-ge) d2 e c2 B | (A2 B) A2 c d2 c | %17
w: ||||||||
 (B2 G) F2 G E-ED | (^C2 D)!<(! C2 E F2 E!<)! | (D2 B,) ^A,2 B, G,2 F, |"^3" B,3- B,- B,2- B,3- | %21
w: ||||
 B,3- B,3!<(! (E2 G)!<)! | (c2 A) (c2 A) (A2 E) | (^D-DE) (B2 A) G2- (G/e/-) | e3- e3 a2- a | %25
w: ||||
 B3- B3!<(! (^d-d-d/)e/!<)! |[K:treble]!ff!"^4" (e2 f) (e2 g) (a2 g) | (f2 d) (c2 d) (b2 a) | %28
w: |||
 (g2 a) (g-gb) (c'2 b) | (a2 f) (e2 f)!<(! (^d2 b)!<)! | b2- b a3 ^a3 | %31
w: |||
 (B,/B,/)(^C/^D/)E/F/ G/A/!<(!B/^c/!<(!^d/e/ !tenuto!f/!tenuto!g/!tenuto!a/!tenuto!b/!tenuto!^c'/!tenuto!^d'/!<)! | %32
w: |
"^5" e'3!<)! z4 z2"^a tempo" | z9 | z9 | z9 | z9 | z9 |[K:alto]!mf!"^6" (f2 g) f2 a b2 a | %39
w: |||||||
 (g-ge) d2 e c2 B | (A2 B) A2 c d2 c |!>(! (B2 G) F2 G E-ED!>)! | (C2 D) C2 E F2 E | %43
w: ||||
 (D2 B,) A,2 B, G,2 F, | B,2 z G,2 z F,2 z |!p! E,6 z2 z |"^7" z9 | %47
w: |* Pizz. *|||
[M:12/8] (e- e2 ^d3)!>(! (e3 d2) A!>)! | G2 z8 z2 |[K:treble]!p! (g- g2 f3) (g3 f3) | %50
w: acro. * * * * *|||
!pp! (bd'>)(^c' f'2) e' (d'2 b) (^a2 g) | (f- f2- f2) g (f2 B) (^A2 G) | F2 z (A2- A F3) (A3 | %53
w: |||
[K:alto] F-) F2- F2- F- (F3 G3) |[K:E]!mf!"^8\n" (G>A)G!<(! (c2 f)!>(! (f3 e3)!<)!!>)! | %55
w: ||
 d- d2 (c2 d) B3 (^A2 B) | G3 z4 z2 e3 | d- d2 (=G>^G)=G ^G3 (^A2 B) | %58
w: |||
"^9" (B>=c)B (e2 a) (a3 =g3) | f- f2 (e=g>)f =d3 (ce>)d | (B3- B2) A (F2 =G) =g3 | %61
w: |||
[K:treble]!mf! (f-f/=g/)f (b2 e') e'3 =d'3 |!f!"^10" (c'3- c'2) b (e2 E) D/E/F/=G/A/B/ | %63
w: ||
[K:alto] (=c- c2- c2) B (A2 =C) B,/D/F/B/d/f/ | =g3- g2 f =d(=D>=F) (EG)B |[M:6/8] =c(=C>E) B,3 | %66
w: |||
[M:12/8]"^11" B,3!p! C2 (D- D2) E ^A2- A | (B3 =G3) (^G-GD) (C^A,)B, | %68
w: ||
 (B,>=C)B, (E2 A) (A2 =D) =G2- G |!f! (F>^^F)^F (B2 e) e- e2 ^^c3 | %70
w: ||
!ff!"^12" c(E>=G) (=DF)B A(=C>E) ^D/E/F/G/A/B/ | =c(E>=G) (^DF)B A(=C>E) D/F/A/B/d/f/ | %72
w: ||
 =g3- g2 f =d(=D>=F) (EG)B |[M:6/8] =c(=C>E)!>(! B,3!>)! || %74
w: ||
[K:G][M:12/8]"^13" B,- B,2- B,2- B,-!p! B,2 z4 | (G3 F2-) F (G3 F3) | %76
w: ||
!pp! (Bd>)(^c f2) e (d2 A) ^A2 G |!f!!<(!{/F} Bd>(^c!ff! f2) e (d2 B) ^A2 F-!<)! | %78
w: ||
 F- F2 (A3 F3) A3 |[M:9/8]"^14" F2 G F2 A (B2 A) | (G2 E) D-DE (C2 B,) | (A,2 B,) A,2 C (D2 C) | %82
w: ||||
 (B,2 G,) _G,2 =G, (E,2 D,) | (_D,-D,=D,) _D,2 E, (_G,2 E,) | (D,2 B,) ^A,2 B, (G,2 F,) | %85
w: |||
"^15" B,6- B,- B,2- | B,3- B,3 (E,2 G,) | (C>B,)A, (C2 B,) A,(^DE) | %88
w: |||
[K:treble] B2 B (c-c^d) (e2 =d) |!f! (dc)G (FE)G (BA)A- | %90
w: ||
 A/B,/^C/^D/E/F/ G/A/B/^c/^d/e/ f/g/a/b/^c'/^d'/ |!ff!"^16" e'-e' z4 z2 z | z9 | %93
w: |||
[K:alto] z4 z2!ff! c- c2 | c3 A3 F3 | E3 e2- e _B3 |!>(! =B3- B- B2 (d2- d/)f/!>)! | %97
w: ||||
[K:treble]!pp!"^17" (f2 g) f2 a (b2 a) | (g2 e) d2 e (c2 B) | (A-AB) A2 c (d2 c) | %100
w: |||
 (B2 G) F2 G (E2 D) | (C2 D) C2 E (F-FE) | (D2 B,) A,2 B, (G,2 F,) | B,2 z G,2 z F,2 z | %104
w: |||* Pizz *|
 E,2 z4 z2 z | z9 | z9 | z9 | z9 | z9 |] %110
w: ||||||

